!!!COM: L. van BEETHOVEN
!!!OTL: String Quartet Op.18 No.5
**kern	**dynam	**kern	**dynam	**kern	**dynam	**kern	**dynam	**mxhm
*part4	*part4	*part3	*part3	*part2	*part2	*part1	*part1	*part1
*staff4	*	*staff3	*	*staff2	*	*staff1	*	*
*I"Violoncello	*	*I"Viola	*	*I"Violin 2	*	*I"Violin 1	*	*
*clefF4	*	*clefC3	*	*clefG2	*	*clefG2	*	*
*k[f#c#]	*	*k[f#c#]	*	*k[f#c#]	*	*k[f#c#]	*	*
*D:	*	*D:	*	*D:	*	*D:	*	*
*M2/4	*	*M2/4	*	*M2/4	*	*M2/4	*	*
!	!	!	!	!	!	!LO:TX:a:B:t=Andante cantabile	!	!
*MM55	*	*MM55	*	*MM55	*	*MM55	*	*
!	!	!	!	!	!	!LO:TX:a:t=[quarter]=55	!	!
8r	.	8r	.	8r	.	8a	p	.D.I
=1	=1	=1	=1	=1	=1	=1	=1	=1
2D	p	([2A	p	4a	p	4ff#	.	I
.	.	.	.	(8g'L	.	(8ee'L	.	.
.	.	.	.	8f#'J)	.	8dd'J)	.	.
=2	=2	=2	=2	=2	=2	=2	=2	=2
2AA	.	4.A]	.	(8e'L	.	(8cc#'L	.	V
.	.	.	.	8d'J)	.	8b'J)	.	.
.	.	.	.	[4c#	.	[4a	.	.
.	.	16GLL	.	.	.	.	.	.
.	.	16F#JJ)	.	.	.	.	.	.
=3	=3	=3	=3	=3	=3	=3	=3	=3
2AA	.	(16GLL	.	8c#L]	.	8aL]	.	.
.	.	16EJJ)	.	.	.	.	.	.
.	.	([4.A	.	(8c#'	.	(8a'	.	.
.	.	.	.	8d'	.	8b'	.	.
.	.	.	.	8e'J)	.	8cc#'J)	.	.
=4	=4	=4	=4	=4	=4	=4	=4	=4
2D	.	4.A]	.	(8f#'L	.	(8dd'L	.	I
.	.	.	.	8g'J)	.	8ee'J)	.	.
.	.	.	.	4a	.	4ff#	.	.
.	.	16BLL	.	.	.	.	.	.
.	.	16c#JJ)	.	.	.	.	.	.
=5	=5	=5	=5	=5	=5	=5	=5	=5
2D	.	(8d	.	4a	.	4ff#	.	.
.	.	[4.A)	.	.	.	.	.	.
.	.	.	.	(8g'L	.	(8ee'L	.	.
.	.	.	.	8f#'J)	.	8dd'J)	.	.
=6	=6	=6	=6	=6	=6	=6	=6	=6
2AA	.	(4A]	.	(8e'L	.	(8cc#'L	.	V
.	.	.	.	8d'J)	.	8b'J)	.	.
.	.	(16ALL)	.	([4c#	.	([4a	.	.
.	.	16B	.	.	.	.	.	.
.	.	16c#	.	.	.	.	.	.
.	.	16dJJ)	.	.	.	.	.	.
=7	=7	=7	=7	=7	=7	=7	=7	=7
4EE	.	([2e	.	8c#L]	.	8aL]	.	V.V(64)
.	.	.	.	16.BL	.	16.g#XL	.	.
.	.	.	.	32AJJk)	.	32f#JJk)	.	.
4E	.	.	.	(8BL	.	(8g#L	.	V7
.	.	.	.	8dJ)	.	8bJ)	.	.
=	=	=	=	=	=	=	=	=
.	.	.	.	16qqc#/LL	.	16qqa/LL	.	I(742)
.	.	.	.	16qqd/	.	16qqb/	.	.
.	.	.	.	16qqe/JJ	.	16qqcc#/JJ	.	.
4.AA	.	8eL]	.	(4d	.	(4b	.	.
.	.	8G#XJ	.	.	.	.	.	.
.	.	8A)	.	8c#)	.	8a)	.	I\\
=8:|!|:	=8:|!|:	=8:|!|:	=8:|!|:	=8:|!|:	=8:|!|:	=8:|!|:	=8:|!|:	=8:|!|:
(8F#	.	(8A	.	8r	.	8r	.	.
=9	=9	=9	=9	=9	=9	=9	=9	=9
8DL	.	8F#L	.	[2d	.	[2dd	.	IV
8EJ	.	8GJ	.	.	.	.	.	.
16GLL	.	16BLL	.	.	.	.	.	.
16F#	.	16A	.	.	.	.	.	.
16E	.	16G	.	.	.	.	.	.
16F#JJ)	.	16AJJ)	.	.	.	.	.	.
=10	=10	=10	=10	=10	=10	=10	=10	=10
8GL	.	8BL	.	4.d]	.	4.dd]	.	I
8BJ	.	8d	.	.	.	.	.	.
16F#LL	.	8AJ	.	.	.	.	.	.
16D	.	.	.	.	.	.	.	.
16F#	.	8r	.	8d	.	(8aa	.	.
16AJJ	.	.	.	.	.	.	.	.
=11	=11	=11	=11	=11	=11	=11	=11	=11
!LO:TX:b:t=cresc.	!	!LO:TX:b:t=cresc.	!	!LO:TX:a:t=cresc.	!	!LO:TX:b:t=cresc.	!	!
(4.d	.	4.d	.	(8dL	.	8ff#L	.	.
.	.	.	.	8eJ	.	8ggJ	.	.
.	.	.	.	16gLL	.	16bbLL	.	.
.	.	.	.	16f#	.	16aa	.	.
8cn)	.	8d	.	16e	.	16gg	.	V2/IV
.	.	.	.	16f#JJ)	.	16aaJJ)	.	.
=12	=12	=12	=12	=12	=12	=12	=12	=12
(8BL	.	(8dL	.	(8gL	.	(8bbL	.	IV6
8G	.	8g	.	8b	.	8ddd	.	IV
8dJ)	.	8f#J)	.	8aJ)	.	8aa)	.	I\\
!	!	!	!	!	!	!LO:TX:b:t=p	!	!
8r	.	8r	.	8r	.	8aaJ	.	.
=13	=13	=13	=13	=13	=13	=13	=13	=13
2D	p	4a	p	4ff#	p	4fff#	.	I
.	.	(8g'L	.	(8ee'L	.	(8eee'L	.	.
.	.	8f#'J)	.	8dd'J)	.	8ddd'J)	.	.
=14	=14	=14	=14	=14	=14	=14	=14	=14
2A	.	(8e'L	.	(8cc#'L	.	(8ccc#'L	.	V
.	.	8d'J)	.	8b'J)	.	8bb'J)	.	.
.	.	(8c#L	.	(8eeL	.	[4aa	.	.
.	.	8BJ	.	8ddJ	.	.	.	.
=15	=15	=15	=15	=15	=15	=15	=15	=15
4.AA	.	8AL	.	8cc#L	.	8aaL]	.	V
.	.	8G	.	8b	.	8aaJ	.	.
.	.	8F#	.	8a	.	(8aaL	.	.
8AA	.	8EJ)	.	8gJ)	.	16bbL	.	V7
.	.	.	.	.	.	16ccc#JJ)	.	.
=	=	=	=	=	=	=	=	=
8DL	.	(4E	.	([4A 4g	.	(4ccc#	.	I(742)
8AA	.	.	.	.	.	.	.	.
8DDJ	.	8D)	.	8A]) 8f#	.	8ddd)	.	I\\
=16:|!|:	=16:|!|:	=16:|!|:	=16:|!|:	=16:|!|:	=16:|!|:	=16:|!|:	=16:|!|:	=16:|!|:
!	!	!	!	!	!	!LO:TX:a:B:t=Var. 1.	!	!
16.AALL	p	8r	.	8r	.	8r	.	.
32AAJJk	.	.	.	.	.	.	.	.
=17	=17	=17	=17	=17	=17	=17	=17	=17
4F#	.	2r	.	2r	.	2r	.	I6
(32qqG/LLL	.	.	.	.	.	.	.	.
32qqF#/	.	.	.	.	.	.	.	.
32qqE/	.	.	.	.	.	.	.	.
32qqF#/JJJ)	.	.	.	.	.	.	.	.
16G'LL	.	.	.	.	.	.	.	.
16E'	.	.	.	.	.	.	.	.
16F#'	.	.	.	.	.	.	.	.
16D'JJ	.	.	.	.	.	.	.	.
=18	=18	=18	=18	=18	=18	=18	=18	=18
16C#'LL	.	4r	.	2r	.	2r	.	V6
16D'	.	.	.	.	.	.	.	.
16E'	.	.	.	.	.	.	.	.
16F#'JJ	.	.	.	.	.	.	.	.
!LO:TX:b:t=sempre stacc.	!	!	!	!	!	!	!	!
16E'LL	.	8r	.	.	.	.	.	.
16D'	.	.	.	.	.	.	.	.
16C#'	.	16.ALL	p	.	.	.	.	.
16BB'JJ	.	.	.	.	.	.	.	.
.	.	32AJJk	.	.	.	.	.	.
=19	=19	=19	=19	=19	=19	=19	=19	=19
16AALL	.	4g	.	2r	.	2r	.	V7
16A	.	.	.	.	.	.	.	.
16BB	.	.	.	.	.	.	.	.
16AJJ	.	.	.	.	.	.	.	.
.	.	(32qqa/LLL	.	.	.	.	.	.
.	.	32qqg/	.	.	.	.	.	.
.	.	32qqf#/	.	.	.	.	.	.
.	.	32qqg/JJJ)	.	.	.	.	.	.
16C#LL	.	16a'LL	.	.	.	.	.	.
16A	.	16f#'	.	.	.	.	.	.
16AA	.	16g'	.	.	.	.	.	.
16AJJ	.	16e'JJ	.	.	.	.	.	.
=20	=20	=20	=20	=20	=20	=20	=20	=20
!	!	!LO:TX:b:t=sempre stacc.	!	!	!	!	!	!
16DLL	.	16f#LL	.	4r	.	2r	.	I6
16A	.	16g	.	.	.	.	.	.
16E	.	16a	.	.	.	.	.	.
16AJJ	.	16bJJ	.	.	.	.	.	.
16F#LL	.	16aLL	.	8r	.	.	.	.
16A	.	16g	.	.	.	.	.	.
16C#	.	16f#	.	16.aLL	p	.	.	.
16AJJ	.	16eJJ	.	.	.	.	.	.
.	.	.	.	32aJJk	.	.	.	.
=21	=21	=21	=21	=21	=21	=21	=21	=21
16DLL	.	16f#LL	.	4ff#	.	4r	.	I
16A	.	16a	.	.	.	.	.	.
16d	.	16f#	.	.	.	.	.	.
16AJJ	.	16aJJ	.	.	.	.	.	.
.	.	.	.	(32qqgg/LLL	.	.	.	.
.	.	.	.	32qqff#/	.	.	.	.
.	.	.	.	32qqee/	.	.	.	.
.	.	.	.	32qqff#/JJJ)	.	.	.	.
16c#LL	.	16eLL	.	16gg'LL	.	8r	.	V7
16A	.	16a	.	16ee'	.	.	.	.
16d	.	16f#	.	16ff#'	.	16.aaLL	p	I
16DJJ	.	16f#JJ	.	16dd'JJ	.	.	.	.
.	.	.	.	.	.	32aaJJk	.	.
=22	=22	=22	=22	=22	=22	=22	=22	=22
!LO:TX:b:t=cresc.	!	!LO:TX:b:t=cresc.	!	!LO:TX:b:t=cresc.	!	!LO:TX:b:t=cresc.	!	!
16c#LL	.	16eLL	.	[4ee	.	4eee	.	V.I6
16C#	.	16ee	.	.	.	.	.	.
16B	.	16B	.	.	.	.	.	.
16BBJJ	.	16bJJ	.	.	.	.	.	.
.	.	.	.	.	.	(32qqaaa/LLL	.	V
.	.	.	.	.	.	32qqggg/	.	.
.	.	.	.	.	.	32qqfff#/	.	.
.	.	.	.	.	.	32qqggg/JJJ)	.	.
16ALL	.	16c#LL	.	16eeLL]	.	16aaa'LL	.	.
16AA	.	16cc#	.	16cc#'	.	16eee'	.	.
16F#	.	16A	.	16ccn'	.	16aaa'	.	viio65/V
16FF#JJ	.	16aJJ	.	16cc'JJ	.	16ddd#X'JJ	.	.
=23	=23	=23	=23	=23	=23	=23	=23	=23
!	!LO:DY:a	!	!	!	!	!	!	!
16EE'LL	sf	16aLL	.	16eLL 16cc#	.	16eee'LL	.	V(64)
16EE'	sf	16a	.	16e 16cc#	sf	16ccc#'	sf	.
16AA'	.	16r	.	16r	.	16aa'	.	.
!	!LO:DY:a	!	!	!	!	!	!	!
16C#'JJ	sf sf	16a	.	16e 16cc#	sf	16ee'JJ	sf	.
16E'LL	.	16r	.	16r	.	16dd'LL	.	V7
!	!LO:DY:a	!	!	!	!	!	!	!
16G#X'	sf sf	16b	.	16e 16dd	sf	16b'	sf	.
16B'	.	16r	.	16r	.	16g#X'	.	.
16d'JJ	sf	16EJJ	sf	16bJJ	sf	16e'JJ	sf	.
=	=	=	=	=	=	=	=	=
(4d	p	16ALL	p	(4g#X	p	(4b	p	I(742)
.	.	16e	.	.	.	.	.	.
.	.	16A	.	.	.	.	.	.
.	.	16eJJ	.	.	.	.	.	.
8c#)	.	8A	.	8a)	.	8a)	.	I\\
=24:|!|:	=24:|!|:	=24:|!|:	=24:|!|:	=24:|!|:	=24:|!|:	=24:|!|:	=24:|!|:	=24:|!|:
16.AALL	p	8r	.	8r	.	8r	.	.
32AAJJk	.	.	.	.	.	.	.	.
=25	=25	=25	=25	=25	=25	=25	=25	=25
8.DL	.	2r	.	2r	.	4r	.	I.I
(48AALL	.	.	.	.	.	.	.	.
48BB	.	.	.	.	.	.	.	.
48C#JJJ)	.	.	.	.	.	.	.	.
16D'LL	.	.	.	.	.	8r	.	.
16C#'	.	.	.	.	.	.	.	.
16D'	.	.	.	.	.	8r	.	V2/IV
16Cn'JJ	.	.	.	.	.	.	.	.
=26	=26	=26	=26	=26	=26	=26	=26	=26
!LO:TX:b:t=sempre stacc.	!	!	!	!	!	!	!	!
16DLL	.	4r	.	(4g	p	8r	.	IV6
16BB	.	.	.	.	.	.	.	.
16D	.	.	.	.	.	8r	.	iv6
16BB-XJJ	.	.	.	.	.	.	.	.
16DLL	.	8r	.	8aL	.	8r	.	I
16AA	.	.	.	.	.	.	.	.
16D	.	16.dLL	p	8b-XJ)	.	8r	.	iv
16GGJJ	.	.	.	.	.	.	.	.
.	.	32dJJk	.	.	.	.	.	.
=27	=27	=27	=27	=27	=27	=27	=27	=27
16FF#LL	.	8.ddL	.	8a	.	4r	.	I6
16D	.	.	.	.	.	.	.	.
16DD	.	.	.	8r	.	.	.	.
16DJJ	.	(48aLL	.	.	.	.	.	.
.	.	48b	.	.	.	.	.	.
.	.	48cc#JJJ)	.	.	.	.	.	.
16EELL	.	16dd'LL	.	4r	.	4r	.	vi6
16D	.	16cc#'	.	.	.	.	.	.
16FF#	.	16dd'	.	.	.	.	.	.
16DJJ	.	16ccn'JJ	.	.	.	.	.	.
=28	=28	=28	=28	=28	=28	=28	=28	=28
!	!	!LO:TX:b:t=sempre stacc.	!	!	!	!	!	!
16GGLL	.	16ddLL	.	4r	.	(4gg	p	IV
16D	.	16b	.	.	.	.	.	.
16GG	.	16dd	.	.	.	.	.	.
16DJJ	.	16b-XJJ	.	.	.	.	.	.
16FF#LL	.	16ddLL	.	8r	.	8aaL	.	I6
16D	.	16a	.	.	.	.	.	.
16GG	.	16dd	.	16.dLL	p	8bb-XJ)	.	iv
16DJJ	.	16gJJ	.	.	.	.	.	.
.	.	.	.	32dJJk	.	.	.	.
=29	=29	=29	=29	=29	=29	=29	=29	=29
16DDLL	.	16ddLL	.	4ff#	.	8aaL	.	I
16A	.	16f#	.	.	.	.	.	.
16D	.	16a	.	.	.	8r	.	.
16AJJ	.	16f#JJ	.	.	.	.	.	.
.	.	.	.	(16qqgg/LL	.	.	.	.
.	.	.	.	16qqff#/	.	.	.	.
.	.	.	.	16qqee/	.	.	.	.
.	.	.	.	16qqff#/JJ)	.	.	.	.
16C#LL	.	16eLL	.	16gg'LL	.	8r	.	V65
16A	.	16a	.	16ee'	.	.	.	.
16D	.	16f#	.	16ff#'	.	16.aaL	.	I
16AJJ	.	16aJJ	.	16dd'JJ	.	.	.	.
.	.	.	.	.	.	32aaJJk	.	.
=30	=30	=30	=30	=30	=30	=30	=30	=30
!LO:TX:b:t=cresc.	!	!LO:TX:b:t=cresc.	!	!LO:TX:b:t=cresc.	!	!LO:TX:b:t=cresc.	!	!
16ELL	.	16gLL	.	16cc#'LL	.	[2ggg	.	V65
16A	.	16a	.	16a'	.	.	.	.
16D	.	16f#	.	16dd'	.	.	.	.
16AJJ	.	16aJJ	.	16a'JJ	.	.	.	.
16C#LL	.	16eLL	.	16ee'LL	.	.	.	.
16A	.	16a	.	16a'	.	.	.	.
16BB	.	16d	.	16ff#'	.	.	.	.
16AJJ	.	16aJJ	.	16a'JJ	.	.	.	.
=31	=31	=31	=31	=31	=31	=31	=31	=31
16AA'LL	.	16c#LL	.	16ggLL	.	16gggLL]	.	V7
16AA'	sf	16c#	sf	16A 16g	sf	16eee'	sf	.
16C#'	.	16r	.	16r	.	16ccc#'	.	.
16E'JJ	sf	16c#	sf	16A 16g	sf	16aa'JJ	sf	.
16A'LL	.	16r	.	16r	.	16gg'LL	.	.
16c#'	sf	16e	sf	16A 16g	sf	16ee'	sf	.
16e'	.	16r	.	16r	.	16cc#'	.	.
16g'JJ	sf	16AJJ	sf	16c#JJ	sf	16a'JJ	sf	.
=	=	=	=	=	=	=	=	=
(4g	p	16DLL	p	(4c#	p	(4ee	p	I(742)
.	.	16A	.	.	.	.	.	.
.	.	16D	.	.	.	.	.	.
.	.	16AJJ	.	.	.	.	.	.
8f#)	.	8D	.	8d)	.	8dd)	.	I\\
=32:|!|:	=32:|!|:	=32:|!|:	=32:|!|:	=32:|!|:	=32:|!|:	=32:|!|:	=32:|!|:	=32:|!|:
!	!	!	!	!	!	!LO:TX:a:B:t=Var. 2.	!	!
8r	.	8r	.	8r	.	24r	.	.
.	.	.	.	.	.	(24aLL	pp	.
.	.	.	.	.	.	24ddJJ	.	.
=33	=33	=33	=33	=33	=33	=33	=33	=33
16DLL	pp	16ALL	pp	16f#LL	pp	24ff#'LL)	.	I
.	.	.	.	.	.	24d'	.	.
16r	.	16r	.	16r	.	.	.	.
.	.	.	.	.	.	24f#'JJ	.	.
16DJJ	.	16AJJ	.	16f#JJ	.	24a'LL	.	.
.	.	.	.	.	.	24dd'	.	.
16r	.	16r	.	16r	.	.	.	.
.	.	.	.	.	.	24ff#'JJ	.	.
4r	.	4r	.	4r	.	24aa'LL	.	.
.	.	.	.	.	.	24gg'	.	.
.	.	.	.	.	.	24ff#'JJ	.	.
.	.	.	.	.	.	24ee'LL	.	.
.	.	.	.	.	.	24ff#'	.	.
.	.	.	.	.	.	24dd'JJ	.	.
=34	=34	=34	=34	=34	=34	=34	=34	=34
8E'L	.	8A'L	.	8g'L	.	24cc#LL	.	V43
.	.	.	.	.	.	24aa	.	.
.	.	.	.	.	.	24ggJJ	.	.
8E'J	.	8A'J	.	8g'J	.	24ff#LL	.	.
.	.	.	.	.	.	24ee	.	.
.	.	.	.	.	.	24ddJJ	.	.
4r	.	4r	.	4r	.	24cc#LL	.	.
.	.	.	.	.	.	24ff#	.	.
.	.	.	.	.	.	24eeJJ	.	.
.	.	.	.	.	.	24ddLL	.	.
.	.	.	.	.	.	24cc#	.	.
.	.	.	.	.	.	24bJJ	.	.
=35	=35	=35	=35	=35	=35	=35	=35	=35
8C#'L	.	8A'L	.	8e'L	.	24aLL	.	V65
.	.	.	.	.	.	24cc#	.	.
.	.	.	.	.	.	24eeJJ	.	.
8C#'J	.	8A'J	.	8e'J	.	24aaLL	.	.
.	.	.	.	.	.	24ccc#	.	.
.	.	.	.	.	.	24dddJJ	.	.
4r	.	4r	.	4r	.	24eeeLL	.	.
.	.	.	.	.	.	24ddd	.	.
.	.	.	.	.	.	24ccc#JJ	.	.
.	.	.	.	.	.	24bbLL	.	.
.	.	.	.	.	.	24aa	.	.
.	.	.	.	.	.	24ggJJ	.	.
=36	=36	=36	=36	=36	=36	=36	=36	=36
8D'L	.	8A'L	.	8f#'L	.	24ff#LL	.	I
.	.	.	.	.	.	24ddd	.	.
.	.	.	.	.	.	24ccc#JJ	.	.
8D'J	.	8A'J	.	8f#'J	.	24bbLL	.	.
.	.	.	.	.	.	24aa	.	.
.	.	.	.	.	.	24ggJJ	.	.
4r	.	4r	.	4r	.	24ff#LL	.	.
.	.	.	.	.	.	24bb	.	.
.	.	.	.	.	.	24aaJJ	.	.
.	.	.	.	.	.	24ggLL	.	.
.	.	.	.	.	.	24ff#	.	.
.	.	.	.	.	.	24eeJJ	.	.
=37	=37	=37	=37	=37	=37	=37	=37	=37
8D	.	8A	.	8f#	.	12ddL	.	I
.	.	.	.	.	.	24f#Jk	.	.
8r	.	8r	.	8r	.	24aLL	.	.
.	.	.	.	.	.	24dd	.	.
.	.	.	.	.	.	24ff#JJ	.	.
8C#L	.	8AL	.	8eL	.	24aaLL	.	V6
.	.	.	.	.	.	24aa	.	.
.	.	.	.	.	.	24aaJJ	.	.
8BBJ	.	8AJ	.	8dJ	.	24aaLL	.	vi7
.	.	.	.	.	.	24aa	.	.
.	.	.	.	.	.	24aaJJ	.	.
=38	=38	=38	=38	=38	=38	=38	=38	=38
8C#	.	8A	.	8e	.	24aaLL	.	V6
.	.	.	.	.	.	24a	.	.
.	.	.	.	.	.	24cc#JJ	.	.
8r	.	8r	.	8r	.	24eeLL	.	.
.	.	.	.	.	.	24aa	.	.
.	.	.	.	.	.	24ccc#JJ	.	.
8BBL	.	8G#XL	.	8dL	.	24eeeLL	.	V43/V
.	.	.	.	.	.	24eee	.	.
.	.	.	.	.	.	24eeeJJ	.	.
8AAJ	.	8AJ	.	8c#J	.	24eeeLL	.	V
.	.	.	.	.	.	24eee	.	.
.	.	.	.	.	.	24eeeJJ	.	.
=39	=39	=39	=39	=39	=39	=39	=39	=39
.	.	.	.	.	.	8qeee/	.	V.V7
8r	.	8B	.	8d	.	24dddLL	.	.
.	.	.	.	.	.	24ccc#	.	.
.	.	.	.	.	.	24bb	.	.
.	.	.	.	.	.	8qbb/	.	.
8EE	.	8r	.	8r	.	24aa	.	.
.	.	.	.	.	.	24gg#X	.	.
.	.	.	.	.	.	24ff#JJ	.	.
.	.	.	.	.	.	8qff#/	.	.
8r	.	8B	.	8d	.	24eeLL	.	.
.	.	.	.	.	.	24dd	.	.
.	.	.	.	.	.	24cc#	.	.
.	.	.	.	.	.	8qcc#/	.	.
8E	.	8r	.	8r	.	24b	.	.
.	.	.	.	.	.	24a	.	.
.	.	.	.	.	.	24g#XJJ	.	.
=	=	=	=	=	=	=	=	=
8AAL	.	8r	.	24r	.	(4b	.	I(742)
.	.	.	.	(24dLL	.	.	.	.
.	.	.	.	24c#	.	.	.	.
8EE	.	(8G#XL	.	24d	.	.	.	.
.	.	.	.	24e	.	.	.	.
.	.	.	.	24dJJ)	.	.	.	.
8AAJ	.	8AJ)	.	8c#	.	8a)	.	I\\
=40:|!|:	=40:|!|:	=40:|!|:	=40:|!|:	=40:|!|:	=40:|!|:	=40:|!|:	=40:|!|:	=40:|!|:
8r	.	8r	.	8r	.	24r	.	.
.	.	.	.	.	.	(24aLL	.	.
.	.	.	.	.	.	24gJJ)	.	.
=41	=41	=41	=41	=41	=41	=41	=41	=41
8D'L	.	8d'L	.	8f#'L 8a	.	24f#'LL	.	I.I
.	.	.	.	.	.	24d'	.	.
.	.	.	.	.	.	24f#'JJ	.	.
8D'J	.	8d'J	.	8f#'J 8a	.	24a'LL	.	.
.	.	.	.	.	.	24cc#'	.	.
.	.	.	.	.	.	24dd'JJ	.	.
4r	.	4r	.	4r	.	24ff#LL	.	.
.	.	.	.	.	.	24aa	.	.
.	.	.	.	.	.	24ccc#JJ	.	.
.	.	.	.	.	.	24dddLL	.	.
.	.	.	.	.	.	24ddd	.	.
.	.	.	.	.	.	24dddJJ	.	.
=42	=42	=42	=42	=42	=42	=42	=42	=42
2r	.	24GLL	<	(8.bL	<	(8.dddL	<	IV
.	.	24B	.	.	.	.	.	.
.	.	24dJJ	.	.	.	.	.	.
.	.	24gLL	.	.	.	.	.	.
.	.	24b	.	.	.	.	.	.
.	.	.	.	16gJk	.	16bbJk	.	.
.	.	24ddJJ	.	.	.	.	.	.
.	.	24ddLL	[ >	8e#XL	[ >	8gg#XL	[ >	I(#4#2)
.	.	24dd	.	.	.	.	.	.
.	.	24ddJJ	.	.	.	.	.	.
.	.	24ddLL	.	16f#Jk)	.	16aaJk)	.	I
.	.	24dd	.	.	.	.	.	.
.	.	.	.	16r	]]	16r	]]	.
.	.	24ddJJ	]]	.	.	.	.	.
=43	=43	=43	=43	=43	=43	=43	=43	=43
8DL	.	8dL	.	8f#L 8a	.	24d'LL	.	.
.	.	.	.	.	.	24e'	.	.
.	.	.	.	.	.	24f#'JJ	.	.
8DJ	.	8dJ	.	8f#J 8a	.	24g'LL	.	.
.	.	.	.	.	.	24a'	.	.
.	.	.	.	.	.	24b'JJ	.	.
4r	.	4r	.	4r	.	24cc#'LL	.	.
.	.	.	.	.	.	24dd'	.	.
.	.	.	.	.	.	24ee'JJ	.	.
.	.	.	.	.	.	24ff#'LL	.	.
.	.	.	.	.	.	24gg'	.	.
.	.	.	.	.	.	24aa'JJ	.	.
=44	=44	=44	=44	=44	=44	=44	=44	=44
24GGLL	<	(8.dL	<	(8.bL	<	(8.bbL	<	IV
24BB	.	.	.	.	.	.	.	.
24DJJ	.	.	.	.	.	.	.	.
24GLL	.	.	.	.	.	.	.	.
24B	.	.	.	.	.	.	.	.
.	.	16BJk	.	16gJk	.	16ggJk	.	.
24dJJ	.	.	.	.	.	.	.	.
24dLL	[ >	8G#XL	[ >	8e#XL	[ >	8ee#XL	[ >	I64(#4#2)
24d	.	.	.	.	.	.	.	.
24dJJ	.	.	.	.	.	.	.	.
24dLL	.	16AJk)	.	16f#Jk)	.	24ff#'L)	.	I64
24d	.	.	.	.	.	(24a	.	.
.	.	16r	]]	16r	]]	.	.	.
24dJJ	]]	.	.	.	.	24ddJJ	]]	.
=45	=45	=45	=45	=45	=45	=45	=45	=45
8DL	pp	8AL	pp	8f#L	pp	24ff#LL)	pp	I
.	.	.	.	.	.	24d	.	.
.	.	.	.	.	.	24f#JJ	.	.
8DJ	.	8AJ	.	8f#J	.	24aLL	.	.
.	.	.	.	.	.	24dd	.	.
.	.	.	.	.	.	24ff#JJ	.	.
4r	.	4r	.	4r	.	24aaLL	.	.
.	.	.	.	.	.	24gg	.	.
.	.	.	.	.	.	24ff#JJ	.	.
.	.	.	.	.	.	24eeLL	.	.
.	.	.	.	.	.	24ff#	.	.
.	.	.	.	.	.	24ddJJ	.	.
=46	=46	=46	=46	=46	=46	=46	=46	=46
8EL	.	8AL	.	8gL	.	24cc#LL	.	V43
.	.	.	.	.	.	24aa	.	.
.	.	.	.	.	.	24ggJJ	.	.
8EJ	.	8AJ	.	8gJ	.	24ff#LL	.	.
.	.	.	.	.	.	24ee	.	.
.	.	.	.	.	.	24ddJJ	.	.
4r	.	4r	.	4r	.	24cc#LL	.	.
.	.	.	.	.	.	24ff#	.	.
.	.	.	.	.	.	24eeJJ	.	.
.	.	.	.	.	.	24ddLL	.	.
.	.	.	.	.	.	24cc#	.	.
.	.	.	.	.	.	24bJJ	.	.
=47	=47	=47	=47	=47	=47	=47	=47	=47
8r	.	8e	.	8A 8g	.	24aLL	.	V65
.	.	.	.	.	.	24cc#	.	.
.	.	.	.	.	.	24eeJJ	.	.
8C#L	.	8r	.	8r	.	24aaLL	.	.
.	.	.	.	.	.	24ccc#	.	.
.	.	.	.	.	.	24eeeJJ	.	.
8r	.	8e	.	8A 8g	.	24gggLL	.	V7
.	.	.	.	.	.	24eee	.	.
.	.	.	.	.	.	24ccc#JJ	.	.
8AAJ	.	8r	.	8r	.	24gggLL	.	.
.	.	.	.	.	.	24eee	.	.
.	.	.	.	.	.	24ccc#JJ	.	.
=	=	=	=	=	=	=	=	=
8DL	.	8r	.	24r	.	(4eee	.	I(742)
.	.	.	.	(24gLL	.	.	.	.
.	.	.	.	24f#	.	.	.	.
8AAJ	.	(8c#	.	24g	.	.	.	.
.	.	.	.	24a	.	.	.	.
.	.	.	.	24gJJ)	.	.	.	.
8D	.	8d)	.	8f#	.	8ddd)	.	I\\
=48:|!	=48:|!	=48:|!	=48:|!	=48:|!	=48:|!	=48:|!	=48:|!	=48:|!
!	!	!	!	!	!	!LO:TX:a:B:t=Var. 3.	!	!
8r	.	8A	p	8r	.	8r	.	.
=49!|:	=49!|:	=49!|:	=49!|:	=49!|:	=49!|:	=49!|:	=49!|:	=49!|:
(4D	p	(4f#	.	(32f#LLL	p	4r	.	I
.	.	.	.	32a)	.	.	.	.
.	.	.	.	(32b	.	.	.	.
.	.	.	.	32aJJJ)	.	.	.	.
.	.	.	.	(32bLLL	.	.	.	.
.	.	.	.	32a)	.	.	.	.
.	.	.	.	(32b	.	.	.	.
.	.	.	.	32aJJJ)	.	.	.	.
8EL	.	8eL	.	(32gLLL	.	8r	.	V43
.	.	.	.	32a)	.	.	.	.
.	.	.	.	(32b	.	.	.	.
.	.	.	.	32aJJJ)	.	.	.	.
8F#J	.	8dJ	.	(32f#LLL	.	8r	.	I6
.	.	.	.	32a)	.	.	.	.
.	.	.	.	(32b	.	.	.	.
.	.	.	.	32aJJJ)	.	.	.	.
=50	=50	=50	=50	=50	=50	=50	=50	=50
8G)	.	8c#)	.	(32eLLL	.	2r	.	V2
.	.	.	.	32a)	.	.	.	.
.	.	.	.	(32b	.	.	.	.
.	.	.	.	32aJJJ)	.	.	.	.
8r	.	8r	.	(32bLLL	.	.	.	.
.	.	.	.	32a)	.	.	.	.
.	.	.	.	(32b	.	.	.	.
.	.	.	.	32aJJJ)	.	.	.	.
4r	.	4r	.	(32bLLL	.	.	.	.
.	.	.	.	32a)	.	.	.	.
.	.	.	.	(32b	.	.	.	.
.	.	.	.	32aJJJ)	.	.	.	.
.	.	.	.	(32bLLL	.	.	.	.
.	.	.	.	32a)	.	.	.	.
.	.	.	.	(32b	.	.	.	.
.	.	.	.	32aJJJ)	.	.	.	.
=51	=51	=51	=51	=51	=51	=51	=51	=51
(4AA	.	2r	.	(32cc#LLL	.	(4gg	p	V7
.	.	.	.	32a)	.	.	.	.
.	.	.	.	(32b	.	.	.	.
.	.	.	.	32aJJJ)	.	.	.	.
.	.	.	.	(32bLLL	.	.	.	.
.	.	.	.	32a)	.	.	.	.
.	.	.	.	(32b	.	.	.	.
.	.	.	.	32aJJJ)	.	.	.	.
8BBL	.	.	.	(32ddLLL	.	8ff#L	.	vi7
.	.	.	.	32a)	.	.	.	.
.	.	.	.	(32b	.	.	.	.
.	.	.	.	32aJJJ)	.	.	.	.
8C#J	.	.	.	(32gLLL	.	8eeJ	.	V65
.	.	.	.	32a)	.	.	.	.
.	.	.	.	(32b	.	.	.	.
.	.	.	.	32aJJJ)	.	.	.	.
=52	=52	=52	=52	=52	=52	=52	=52	=52
8D)	.	2r	.	(32f#LLL	.	8dd)	.	I
.	.	.	.	32a)	.	.	.	.
.	.	.	.	(32b	.	.	.	.
.	.	.	.	32aJJJ)	.	.	.	.
8r	.	.	.	(32bLLL	.	8r	.	.
.	.	.	.	32a)	.	.	.	.
.	.	.	.	(32b	.	.	.	.
.	.	.	.	32aJJJ)	.	.	.	.
4r	.	.	.	(32bLLL	.	4r	.	.
.	.	.	.	32a)	.	.	.	.
.	.	.	.	(32b	.	.	.	.
.	.	.	.	32aJJJ)	.	.	.	.
.	.	.	.	(32bLLL	.	.	.	.
.	.	.	.	32a)	.	.	.	.
.	.	.	.	(32b	.	.	.	.
.	.	.	.	32aJJJ)	.	.	.	.
=53	=53	=53	=53	=53	=53	=53	=53	=53
2r	.	[4D	p	(32f#LLL	.	(32bbLLL	.	.
.	.	.	.	32a)	.	32aa)	.	.
.	.	.	.	(32f#	.	(32bb	.	.
.	.	.	.	32aJJJ)	.	32aaJJJ)	.	.
.	.	.	.	(32f#LLL	.	(32bbLLL	.	.
.	.	.	.	32a)	.	32aa)	.	.
.	.	.	.	(32f#	.	(32bb	.	.
.	.	.	.	32aJJJ)	.	32aaJJJ)	.	.
.	.	16DLL]	.	(32eLLL	.	(32aaLLL	.	.
.	.	.	.	32a)	.	32gg)	.	.
.	.	(16E	.	(32e	.	(32aa	.	.
.	.	.	.	32aJJJ)	.	32ggJJJ)	.	.
.	.	16F#	.	(32dLLL	.	(32ggLLL	.	.
.	.	.	.	32a)	.	32ff#)	.	.
.	.	16GJJ)	.	(32d	.	(32gg	.	.
.	.	.	.	32aJJJ)	.	32ff#JJJ)	.	.
=54	=54	=54	=54	=54	=54	=54	=54	=54
!LO:TX:b:t=cresc.	!	!LO:TX:b:t=cresc.	!	!LO:TX:b:t=cresc.	!	!LO:TX:b:t=cresc.	!	!
[4AA	.	[4A	.	(32c#LLL	.	(32ff#LLL	.	V
.	.	.	.	32a)	.	32ee)	.	.
.	.	.	.	(32cc#	.	(32ff#	.	.
.	.	.	.	32aJJJ)	.	32eeJJJ)	.	.
.	.	.	.	(32cc#LLL	.	(32ff#LLL	.	.
.	.	.	.	32a)	.	32ee)	.	.
.	.	.	.	(32cc#	.	(32ff#	.	.
.	.	.	.	32aJJJ)	.	32eeJJJ)	.	.
16AALL]	.	16ALL]	.	(32cc#LLL	.	(32ff#LLL	.	.
.	.	.	.	32a)	.	32ee)	.	.
(16BB	.	(16B	.	(32cc#	.	(32ff#	.	.
.	.	.	.	32aJJJ)	.	32eeJJJ)	.	.
16C#	.	16c#	.	(32cc#LLL	.	(32ff#LLL	.	.
.	.	.	.	32a)	.	32ee)	.	.
16DJJ)	.	16dJJ)	.	(32cc#	.	(32ff#	.	.
.	.	.	.	32aJJJ)	.	32eeJJJ)	.	.
=55	=55	=55	=55	=55	=55	=55	=55	=55
([2E	.	([2e	.	(32cc#LLL	.	(32ff#LLL	.	V7/V
.	.	.	.	32a	.	32ee	.	.
.	.	.	.	32cc#	.	32ff#	.	.
.	.	.	.	32aJJJ	.	32eeJJJ	.	.
.	.	.	.	32ddLLL	.	32gg#XLLL	.	.
.	.	.	.	32a	.	32ee	.	.
.	.	.	.	32dd	.	32aa	.	.
.	.	.	.	32aJJJ	.	32eeJJJ	.	.
.	.	.	.	32bLLL	.	32bbLLL	.	.
.	.	.	.	32a	.	32ee	.	.
.	.	.	.	32b	.	32ccc#	.	.
.	.	.	.	32aJJJ	.	32eeJJJ	.	.
.	.	.	.	32g#XLLL	.	32dddLLL	.	.
.	.	.	.	32a	.	32ee	.	.
.	.	.	.	32b	.	32eee	.	.
.	.	.	.	32g#JJJ)	.	32eeJJJ)	.	.
=56	=56	=56	=56	=56	=56	=56	=56	=56
8EL]	.	8eL]	.	(32cc#LLL	p	8aa	p	V64
.	.	.	.	32a	.	.	.	.
.	.	.	.	32dd	.	.	.	.
.	.	.	.	32bJJJ	.	.	.	.
8AAJ)	p	8A)	p	32eeLLL	.	8r	.	V
.	.	.	.	32cc#	.	.	.	.
.	.	.	.	32ff#	.	.	.	.
.	.	.	.	32ddJJJ	.	.	.	.
4r	.	8r	.	32ggLLL	.	4r	.	V7\\
.	.	.	.	32ff#	.	.	.	.
.	.	.	.	32ee	.	.	.	.
.	.	.	.	32ddJJJ	.	.	.	.
.	.	8AJ	.	32cc#LLL	.	.	.	.
.	.	.	.	32b	.	.	.	.
.	.	.	.	32a	.	.	.	.
.	.	.	.	32gJJJ)	.	.	.	.
=57:|!|:	=57:|!|:	=57:|!|:	=57:|!|:	=57:|!|:	=57:|!|:	=57:|!|:	=57:|!|:	=57:|!|:
2r	.	([4d	.	(32f#LLL	.	(32eeLLL	.	I
.	.	.	.	32a)	.	32dd)	.	.
.	.	.	.	(32f#	.	(32ee	.	.
.	.	.	.	32aJJJ)	.	32ddJJJ)	.	.
.	.	.	.	(32f#LLL	.	(32eeLLL	.	.
.	.	.	.	32a)	.	32dd)	.	.
.	.	.	.	(32f#	.	(32ee	.	.
.	.	.	.	32aJJJ)	.	32ddJJJ)	.	.
.	.	16dLL]	.	(32f#LLL	.	(32eeLLL	.	.
.	.	.	.	32a)	.	32dd)	.	.
.	.	16A	.	(32f#	.	(32ee	.	.
.	.	.	.	32aJJJ)	.	32ddJJJ)	.	.
.	.	16d	.	(32f#LLL	.	(32eeLLL	.	V2/IV
.	.	.	.	32a)	.	32dd)	.	.
.	.	16cnJJ)	.	(32f#	.	(32ee	.	.
.	.	.	.	32aJJJ)	.	32ddJJJ)	.	.
=58	=58	=58	=58	=58	=58	=58	=58	=58
2r	.	8B'L	.	(32gLLL	.	(32eeLLL	.	IV6
.	.	.	.	32b)	.	32dd)	.	.
.	.	.	.	(32g	.	(32ee	.	.
.	.	.	.	32bJJJ)	.	32ddJJJ)	.	.
.	.	8G'	.	(32gLLL	.	(32eeLLL	.	IV
.	.	.	.	32b)	.	32dd)	.	.
.	.	.	.	(32g	.	(32ee	.	.
.	.	.	.	32bJJJ)	.	32ddJJJ)	.	.
.	.	8d'J	.	(32f#LLL	.	(32eeLLL	.	I
.	.	.	.	32a)	.	32dd)	.	.
.	.	.	.	(32f#	.	(32ee	.	.
.	.	.	.	32aJJJ)	.	32ddJJJ)	.	.
.	.	8r	.	(32f#LLL	.	(32eeLLL	.	.
.	.	.	.	32a)	.	32dd)	.	.
.	.	.	.	(32f#	.	(32ee	.	.
.	.	.	.	32aJJJ)	.	32ddJJJ)	.	.
=59	=59	=59	=59	=59	=59	=59	=59	=59
([4D	p	2r	.	(32aLLL	.	(32ggLLL	.	.
.	.	.	.	32dd)	.	32ff#)	.	.
.	.	.	.	(32a	.	(32gg	.	.
.	.	.	.	32ddJJJ)	.	32ff#JJJ)	.	.
.	.	.	.	(32aLLL	.	(32ggLLL	.	.
.	.	.	.	32dd)	.	32ff#)	.	.
.	.	.	.	(32a	.	(32gg	.	.
.	.	.	.	32ddJJJ)	.	32ff#JJJ)	.	.
16DLL]	.	.	.	(32aLLL	.	(32ggLLL	.	.
.	.	.	.	32dd)	.	32ff#)	.	.
16AA	.	.	.	(32a	.	(32gg	.	.
.	.	.	.	32ddJJJ)	.	32ff#JJJ)	.	.
16D	.	.	.	(32aLLL	.	(32ggLLL	.	V2/IV
.	.	.	.	32dd)	.	32ff#)	.	.
16CnJJ)	.	.	.	(32a	.	(32gg	.	.
.	.	.	.	32ddJJJ)	.	32ff#JJJ)	.	.
=60	=60	=60	=60	=60	=60	=60	=60	=60
8BB'L	.	2r	.	(32bLLL	.	(32aaLLL	.	IV6
.	.	.	.	32dd)	.	32gg)	.	.
.	.	.	.	(32b	.	(32aa	.	.
.	.	.	.	32ddJJJ)	.	32ggJJJ)	.	.
8GG'	.	.	.	(32bLLL	.	(32aaLLL	.	IV
.	.	.	.	32dd)	.	32gg)	.	.
.	.	.	.	(32b	.	(32aa	.	.
.	.	.	.	32ddJJJ)	.	32ggJJJ)	.	.
8D'J	.	.	.	(32aLLL	.	(32ggLLL	.	I
.	.	.	.	32dd)	.	32ff#)	.	.
.	.	.	.	(32a	.	(32gg	.	.
.	.	.	.	32ddJJJ)	.	32ff#JJJ)	.	.
8r	.	.	.	(32aLLL	.	(32ggLLL	.	.
.	.	.	.	32dd)	.	32ff#)	.	.
.	.	.	.	(32a	.	(32gg	.	.
.	.	.	.	32ddJJJ)	.	32ff#JJJ)	.	.
=61	=61	=61	=61	=61	=61	=61	=61	=61
[4DD	.	2r	.	(32f#LLL	.	(32bbLLL	.	.
.	.	.	.	32a)	.	32aa)	.	.
.	.	.	.	(32f#	.	(32bb	.	.
.	.	.	.	32aJJJ)	.	32aaJJJ)	.	.
.	.	.	.	(32f#LLL	.	(32bbLLL	.	.
.	.	.	.	32a)	.	32aa)	.	.
.	.	.	.	(32f#	.	(32bb	.	.
.	.	.	.	32aJJJ)	.	32aaJJJ)	.	.
16DDLL]	.	.	.	(32eLLL	.	(32aaLLL	.	.
.	.	.	.	32a)	.	32gg)	.	.
16EE	.	.	.	(32e	.	(32aa	.	.
.	.	.	.	32aJJJ)	.	32ggJJJ)	.	.
16FF#	.	.	.	(32dLLL	.	(32aaLLL	.	.
.	.	.	.	32a)	.	32gg)	.	.
16GGJJ	.	.	.	(32d	.	(32aa	.	.
.	.	.	.	32aJJJ)	.	32ggJJJ)	.	.
=62	=62	=62	=62	=62	=62	=62	=62	=62
!LO:TX:b:t=cresc.	!	!LO:TX:b:t=cresc	!	!LO:TX:b:t=cresc.	!	!LO:TX:b:t=cresc.	!	!
[2AA	.	[4A	.	(32c#LLL	.	(32ff#LLL	.	V
.	.	.	.	32a)	.	32ee)	.	.
.	.	.	.	(32c#	.	(32ff#	.	.
.	.	.	.	32aJJJ)	.	32eeJJJ)	.	.
.	.	.	.	(32c#LLL	.	(32ff#LLL	.	.
.	.	.	.	32a)	.	32ee)	.	.
.	.	.	.	(32c#	.	(32ff#	.	.
.	.	.	.	32aJJJ)	.	32eeJJJ)	.	.
.	.	16ALL]	.	(32c#LLL	.	(32ff#LLL	.	.
.	.	.	.	32a)	.	32ee)	.	.
.	.	(16B	.	(32d	.	(32ff#	.	.
.	.	.	.	32aJJJ)	.	32ee)	.	.
.	.	16c#	.	(32eLLL	.	(32ff#	.	.
.	.	.	.	32a)	.	32ee	.	.
.	.	16dJJ)	.	(32f#	.	32gg	.	.
.	.	.	.	32aJJJ)	.	32ff#JJJ	.	.
=63	=63	=63	=63	=63	=63	=63	=63	=63
8AAL]	.	(16eLL	.	(32gLLL	.	32aaLLL	.	V7
.	.	.	.	32a)	.	32gg	.	.
.	.	16f#J)	.	(32A	.	32bb	.	.
.	.	.	.	32aJJJ)	.	32aa	.	.
8AA	.	[8gJ	.	(32ALLL	.	32ccc#	.	.
.	.	.	.	32a)	.	32bb	.	.
.	.	.	.	(32A	.	32ddd	.	.
.	.	.	.	32aJJJ)	.	32ccc#JJJ	.	.
8r	.	8gL]	.	(32ALLL	.	32eeeLLL	.	.
.	.	.	.	32a)	.	32ddd	.	.
.	.	.	.	(32A	.	32fff#	.	.
.	.	.	.	32aJJJ)	.	32eee	.	.
([8AAJ	sf	([8AJ	sf	(32ALLL	.	32ggg	.	.
.	.	.	.	32g)	.	32eee	.	.
.	.	.	.	(32A	.	32bb	.	.
.	.	.	.	32gJJJ)	.	32ccc#JJJ)	.	.
=64	=64	=64	=64	=64	=64	=64	=64	=64
4AA]	.	4A]	.	(32gLLL	sf	(4ccc#	sf	V7
.	.	.	.	32a	.	.	.	.
.	.	.	.	32cc#	.	.	.	.
.	.	.	.	32eeJJJ	.	.	.	.
.	.	.	.	32ggLLL	.	.	.	.
.	.	.	.	32ee	.	.	.	.
.	.	.	.	32cc#	.	.	.	.
.	.	.	.	32gJJJ)	.	.	.	.
8DD)	p	8D)	p	(32f#LLL	p	8ddd)	p	I\\
.	.	.	.	32dd	.	.	.	.
.	.	.	.	32cc#	.	.	.	.
.	.	.	.	32bJJJ	.	.	.	.
8r	.	8r	.	32aLLL	.	8r	.	.
.	.	.	.	32b	.	.	.	.
.	.	.	.	32g	.	.	.	.
.	.	.	.	32aJJJ)	.	.	.	.
=:|!	=:|!	=:|!	=:|!	=:|!	=:|!	=:|!	=:|!	=:|!
(4AA	.	(4A	.	(32gLLL	sf	(4ccc#	sf	V7
.	.	.	.	32a	.	.	.	.
.	.	.	.	32cc#	.	.	.	.
.	.	.	.	32eeJJJ	.	.	.	.
.	.	.	.	32ggLLL	.	.	.	.
.	.	.	.	32ee	.	.	.	.
.	.	.	.	32cc#	.	.	.	.
.	.	.	.	32gJJJ)	.	.	.	.
8DD)	p	8D)	p	8f#	p	8ddd)	p	I\\
=65!|:	=65!|:	=65!|:	=65!|:	=65!|:	=65!|:	=65!|:	=65!|:	=65!|:
!	!	!	!	!	!	!LO:TX:a:B:t=Var. 4.	!	!
8r	.	8r	.	8r	.	8a	.	.
=66	=66	=66	=66	=66	=66	=66	=66	=66
!LO:TX:b:t=sempre pp	!	!LO:TX:b:t=sempre pp	!	!LO:TX:b:t=sempre pp	!	!LO:TX:b:t=sempre pp	!	!
(4d	.	(4d	.	(4a	.	(4ff#	.	I
8GL	.	8gL	.	8bL)	.	8eeL	.	ii6
8G#XJ	.	8fnJ	.	(8bJ	.	8ddJ	.	#viio7/V
=67	=67	=67	=67	=67	=67	=67	=67	=67
2A)	.	8eL	.	8aL	.	8cc#L	.	V[V
.	.	8dJ	.	8fnJ	.	8g#XJ 8b	.	#viio43/V
.	.	4c#)	.	4e)	.	4a)	.	V6
=68	=68	=68	=68	=68	=68	=68	=68	=68
4.F#	.	(8c#L	.	(4c#	.	(4a#X	.	V/vi
.	.	8f#	.	.	.	.	.	.
.	.	8e#X	.	8g#XL	.	8bL	.	.
([8f#	.	8enJ	.	8a#XJ	.	8cc#J	.	V7/vi
=69	=69	=69	=69	=69	=69	=69	=69	=69
8f#L]	.	8dL	.	8bL	.	8ddL	.	vi6
8eJ	.	8c#J	.	8cc#J	.	8eeJ	.	.
4d)	.	4B)	.	4dd)	.	4ff#)	.	vi
=70	=70	=70	=70	=70	=70	=70	=70	=70
(4B	.	(4.d	.	(4f#	.	(4ff#	.	.
8G#XL	.	.	.	8bL	.	8eeL	.	V65/V
8E#XJ	.	8B	.	8g#XJ	.	8ddJ	.	iii.#viio7
=71	=71	=71	=71	=71	=71	=71	=71	=71
8F#L	.	8AL	.	8aL	.	8cc#L	.	i
8C#	.	8G#XJ	.	8e#XJ	.	8bJ	.	V7
8D	.	4F#)	.	[4f#)	.	[4a)	.	VI
8BB#XJ)	.	.	.	.	.	.	.	.
=72	=72	=72	=72	=72	=72	=72	=72	=72
(4C#	.	8C#	.	(8f#]	.	(8a]	.	V(64)
.	.	4c#	.	4e#X	.	4g#X	.	V
4CC#)	.	.	.	.	.	.	.	.
.	.	[8c#	.	[8g#X)	.	[8b)	.	V7
=	=	=	=	=	=	=	=	=
4.FF#	.	4.c#]	.	(4g#]	.	(4b]	.	i(42)
.	.	.	.	8f#)	.	8a)	.	i\\
=73:|!|:	=73:|!|:	=73:|!|:	=73:|!|:	=73:|!|:	=73:|!|:	=73:|!|:	=73:|!|:	=73:|!|:
8r	.	8r	.	8r	.	(8a	.	.
=74	=74	=74	=74	=74	=74	=74	=74	=74
(4FF#	.	(2cn [2D	.	(4a	.	[2d [2dd	.	V7/IV
8EEL	.	.	.	8gL	.	.	.	.
8DDJ	.	.	.	8f#J	.	.	.	.
=75	=75	=75	=75	=75	=75	=75	=75	=75
8GGL	.	8BL 2D]	.	8bL	.	4.d]) 4.dd]	.	I
8BBJ	.	8dJ	.	8gJ	.	.	.	.
4D)	.	4A)	.	4f#)	.	.	.	.
.	.	.	.	.	.	8ff#	.	.
=76	=76	=76	=76	=76	=76	=76	=76	=76
[2D	.	(4F#	.	(2ccn [2d	.	(4aa	.	V7/IV
.	.	8EL	.	.	.	8ggL	.	.
.	.	8DJ	.	.	.	8ff#J	.	.
=77	=77	=77	=77	=77	=77	=77	=77	=77
2D]	.	8GL	.	8bL 2d]	.	8bb	.	IV64
.	.	8BJ	.	8ddJ	.	4gg	.	I(4)
.	.	4d)	.	4a)	.	.	.	.
.	.	.	.	.	.	[8ff#)	.	I
=78	=78	=78	=78	=78	=78	=78	=78	=78
!LO:TX:b:t=cresc.	!	!LO:TX:b:t=cresc.	!	!LO:TX:b:t=cresc.	!	!LO:TX:b:t=cresc.	!	!
(4.G	.	(4.c#	.	(4.a#X	.	(4ff#]	.	#viio2/vi
.	.	.	.	.	.	8eeL	.	.
8F#	.	[8B)	.	8b	.	8ddJ)	.	vi64
=79	=79	=79	=79	=79	=79	=79	=79	=79
8E#XL	.	(8BL]	.	8g#XL	.	(8cc#L	.	V65/iii
8C#	.	8c#	.	8e#XJ	.	8bJ	.	V7/iii
8D	.	8d	.	4f#)	.	[4a	.	#viio7/ii
[8D#XJ)	.	[8d#XJ)	.	.	.	.	.	.
=80	=80	=80	=80	=80	=80	=80	=80	=80
(8D#]	pp	(8d#]	pp	4.g	pp	4a]	pp	ii(74)
4E)	.	4e)	.	.	.	.	.	.
.	.	.	.	.	.	8bL	.	ii
([8AA	.	8e	.	8A 8g	.	8cc#J)	.	V7
=	=	=	=	=	=	=	=	=
8AAL]	.	(4e	.	((4A 4g	.	(4cc#	.	.
8EE	.	.	.	.	.	.	.	.
8DJ)	.	8d)	.	8A)) 8f#	.	8dd)	.	I\\
=81:|!	=81:|!	=81:|!	=81:|!	=81:|!	=81:|!	=81:|!	=81:|!	=81:|!
!	!	!LO:TX:b:t=.	!	!	!	!LO:TX:a:B:t=Var. 5.	!	!
8r	.	8A	f	8a	f	8r	.	.
=82!|:	=82!|:	=82!|:	=82!|:	=82!|:	=82!|:	=82!|:	=82!|:	=82!|:
16DD'LL	f	(8.f#L	.	(8.ff#L	.	[2aaT	f	I
16F#'	.	.	.	.	.	.	.	.
16AA'	sf	.	.	.	.	.	.	.
16F#'JJ	.	32gLL	.	32ggLL	.	.	.	.
.	.	32f#JJJ	.	32ff#JJJ	.	.	.	.
16DD'LL	.	16e'LL)	.	16ee'LL)	.	.	.	.
16F#'	.	(32f#L	.	(32ff#L	.	.	.	.
.	.	32eJJJ	.	32eeJJJ	.	.	.	.
16AA'	sf	16d'LL)	.	16dd'LL)	.	.	.	.
16F#'JJ	.	(32eL	.	(32eeL	.	.	.	.
.	.	32dJJJ	.	32ddJJJ	.	.	.	.
=83	=83	=83	=83	=83	=83	=83	=83	=83
16EE'LL	.	16c#'LL)	.	16cc#'LL)	.	2aa]	.	V65
16G'	.	(32dL	.	(32ddL	.	.	.	.
.	.	32c#JJJ	.	32cc#JJJ	.	.	.	.
16DD'	.	16B'LL)	.	16b'LL)	.	.	.	.
16G'JJ	.	(32c#L	.	(32cc#L	.	.	.	.
.	.	32BJJJ	.	32bJJJ	.	.	.	.
16CC#LL	.	4A)	.	4a)	.	.	.	.
(32GL	.	.	.	.	.	.	.	.
32F#	.	.	.	.	.	.	.	.
32E	.	.	.	.	.	.	.	.
32D	.	.	.	.	.	.	.	.
32C#	.	.	.	.	.	.	.	.
32BBJJJ)	.	.	.	.	.	.	.	.
.	.	.	.	.	.	(16qqgg#X/LL	.	.
.	.	.	.	.	.	16qqaa/JJ	.	.
=84	=84	=84	=84	=84	=84	=84	=84	=84
16C#'LL	.	(8.AL	.	(8.aL	.	8..gggL)	.	.
16AA'	.	.	.	.	.	.	.	.
16C#'	.	.	.	.	.	.	.	.
16AA'JJ	.	32G#XLL	.	32g#XLL	.	.	.	.
.	.	32AJJJ	.	32aJJJ	.	(32gggJkk	.	.
16DLL	.	16B'LL)	.	16b'LL)	.	16fff#LL)	.	I
16AA	.	(32AL	.	(32aL	.	32r	.	.
.	.	32BJJJ	.	32bJJJ	.	(32fff#JJk	.	.
16G	.	16c#'LL)	.	16cc#'LL)	.	16eeeLL)	.	V7
16AAJJ	.	(32BL	.	(32bL	.	32r	.	.
.	.	32c#JJJ	.	32cc#JJJ	.	(32eeeJJk	.	.
=85	=85	=85	=85	=85	=85	=85	=85	=85
16F#LL	.	16d'LL)	.	16dd'LL)	.	16dddLL)	.	I6
16AA	.	(32c#L	.	(32cc#L	.	32r	.	.
.	.	32dJJJ	.	32ddJJJ	.	(32dddJJk	.	V65
16C#	.	16e'LL)	.	16ee'LL)	.	16aaLL)	.	.
16AAJJ	.	(32dL	.	(32ddL	.	32r	.	.
.	.	32eJJJ	.	32eeJJJ	.	(32aaJJk	.	.
16DLL	.	16f#'LL)	.	16ff#'LL)	.	8ff#)	.	I
16D	.	(32AL	.	(32aL	.	.	.	.
.	.	32BJJJ	.	32bJJJ	.	.	.	.
16AA	.	16c#'LL)	.	16cc#'LL)	.	8r	.	.
16FF#JJ	.	(32dL	.	(32ddL	.	.	.	.
.	.	32eJJJ	.	32eeJJJ	.	.	.	.
=86	=86	=86	=86	=86	=86	=86	=86	=86
16DD'LL	.	8.f#L	.	8.ff#L	.	[2aaT	.	.
16F#'	.	.	.	.	.	.	.	.
16AA'	sf	.	.	.	.	.	.	.
16F#'JJ	.	32gLL	.	32ggLL	.	.	.	.
.	.	32f#JJJ	.	32ff#JJJ	.	.	.	.
16DD'LL	.	16e'LL)	.	16ee'LL)	.	.	.	.
16F#'	.	(32f#L	.	(32ff#L	.	.	.	.
.	.	32eJJJ	.	32eeJJJ	.	.	.	.
16AA'	sf	16d'LL)	.	16dd'LL)	.	.	.	.
16F#'JJ	.	(32eL	.	(32eeL	.	.	.	.
.	.	32dJJJ	.	32ddJJJ	.	.	.	.
=87	=87	=87	=87	=87	=87	=87	=87	=87
16DD#XLL	.	16cn'LL)	.	16ccn'LL)	.	2aa]	.	V.#viio7/V
16AA	.	(32dL	.	(32ddL	.	.	.	.
.	.	32cJJJ	.	32ccJJJ	.	.	.	.
16DD#	.	16B'LL)	.	16b'LL)	.	.	.	.
16AAJJ	.	(32cL	.	(32ccL	.	.	.	.
.	.	32BJJJ	.	32bJJJ	.	.	.	.
16DD#LL	.	[4A)	.	[4a)	.	.	.	.
16BB	.	.	.	.	.	.	.	.
16DD#	.	.	.	.	.	.	.	.
16CnJJ	.	.	.	.	.	.	.	.
=88	=88	=88	=88	=88	=88	=88	=88	=88
16EELL	.	(8AL]	.	(8aL]	.	[2eeeT	.	V7
16BB	.	.	.	.	.	.	.	.
16EE	.	16.G#XL	.	16.g#XL	.	.	.	.
16BBJJ	.	.	.	.	.	.	.	.
.	.	32F#JJk)	.	32f#JJk)	.	.	.	.
16EELL	.	(8G#L	.	(8g#L	.	.	.	.
16D	.	.	.	.	.	.	.	.
16EE	.	8BJ)	.	8bJ)	.	.	.	.
16DJJ	.	.	.	.	.	.	.	.
=89	=89	=89	=89	=89	=89	=89	=89	=89
.	.	16qqA#X/LL	.	16qqa#X/LL	.	.	.	.
.	.	16qqB/	.	16qqb/	.	.	.	.
.	.	16qqc#X/JJ	.	16qqcc#/JJ	.	.	.	.
16AALL	.	(4B	.	(4b	.	(16.eeeLL]	.	I(742)
16D	.	.	.	.	.	.	.	.
.	.	.	.	.	.	64ddd#XLL	.	.
.	.	.	.	.	.	64eeeJJ)	.	.
16AA	.	.	.	.	.	16ggg#X'	.	.
16DJJ	.	.	.	.	.	16eee'JJ	.	.
(32AALLL	.	8AnL)	.	8anL)	.	8aaa'	.	I\\
32C#	.	.	.	.	.	.	.	.
32E	.	.	.	.	.	.	.	.
32C#	.	.	.	.	.	.	.	.
32AA	.	8AJ	.	8aJ	.	8r	.	.
32GG	.	.	.	.	.	.	.	.
32FF#	.	.	.	.	.	.	.	.
32EEJJJ)	.	.	.	.	.	.	.	.
=90:|!	=90:|!	=90:|!	=90:|!	=90:|!	=90:|!	=90:|!	=90:|!	=90:|!
.	.	16qqA#X/LL	.	16qqa#X/LL	.	.	.	.
.	.	16qqB/	.	16qqb/	.	.	.	.
.	.	16qqc#/JJ	.	16qqcc#/JJ	.	.	.	.
16AALL	.	(4B	.	(4b	.	((16.eeeLL	.	I(742)
16D	.	.	.	.	.	.	.	.
.	.	.	.	.	.	64ddd#XLL)	.	.
.	.	.	.	.	.	64eeeJJ)	.	.
16AA	.	.	.	.	.	16ggg#X'	.	.
16DJJ	.	.	.	.	.	16eee'JJ	.	.
(32AALLL	.	8AnL)	.	8anL)	.	8aaa'	.	I\\
32C#	.	.	.	.	.	.	.	.
32E	.	.	.	.	.	.	.	.
32D	.	.	.	.	.	.	.	.
32C#	.	8AJ	.	8aJ	.	8r	.	.
32BB	.	.	.	.	.	.	.	.
32AA	.	.	.	.	.	.	.	.
32GGJJJ)	.	.	.	.	.	.	.	.
=91!|:	=91!|:	=91!|:	=91!|:	=91!|:	=91!|:	=91!|:	=91!|:	=91!|:
16FF#'LL	.	(8.dL	.	(8.ddL	.	[2ddT	.	V2/IV
16D'	.	.	.	.	.	.	.	.
16D'	.	.	.	.	.	.	.	.
16D'JJ	.	32c#LL	.	32cc#LL	.	.	.	.
.	.	32dJJJ	.	32ddJJJ	.	.	.	.
16C#'LL	.	16e'LL)	.	16ee'LL)	.	.	.	.
16D'	.	(32dL	.	(32ddL	.	.	.	.
.	.	32eJJJ	.	32eeJJJ	.	.	.	.
16Cn'	.	16f#'LL)	.	16ff#'LL)	.	.	.	.
16D'JJ	.	(32eL	.	(32eeL	.	.	.	.
.	.	32f#JJJ	.	32ff#JJJ	.	.	.	.
=92	=92	=92	=92	=92	=92	=92	=92	=92
16BB'LL	.	16g'LL)	.	16gg'LL)	.	2dd]	.	I6
16D'	.	(32gL	.	(32ggL	.	.	.	.
.	.	32aJJJ	.	32aaJJJ	.	.	.	.
16GG'	.	16b'LL)	.	16bb'LL)	.	.	.	.
16D'JJ	.	(32bL	.	(32bbL	.	.	.	.
.	.	32cc#JJJ	.	32ccc#JJJ	.	.	.	.
(32FF#LLL	.	8dd')	.	8ddd')	.	.	.	.
32DD	.	.	.	.	.	.	.	.
32FF#	.	.	.	.	.	.	.	.
32AAJJJ	.	.	.	.	.	.	.	.
32DLLL	.	8r	.	8r	.	.	.	.
32F#	.	.	.	.	.	.	.	.
32A	.	.	.	.	.	.	.	.
32GJJJ)	.	.	.	.	.	.	.	.
=93	=93	=93	=93	=93	=93	=93	=93	=93
16F#'tLL	.	[2DT	.	(8.dL	.	(8.ddL	.	.
16d'	.	.	.	.	.	.	.	.
16d'	.	.	.	.	.	.	.	.
16d'JJ	.	.	.	32c#LL	.	32cc#LL	.	.
.	.	.	.	32dJJJ	.	32ddJJJ	.	.
16c#'LL	.	.	.	16e'LL)	.	16ee'LL)	.	.
16d'	.	.	.	(32dL	.	(32ddL	.	.
.	.	.	.	32eJJJ	.	32eeJJJ	.	.
16cn'	.	.	.	16f#'LL)	.	16ff#'LL)	.	V2/IV
16d'JJ	.	.	.	(32eL	.	(32eeL	.	.
.	.	.	.	32f#JJJ	.	32ff#JJJ	.	.
=94	=94	=94	=94	=94	=94	=94	=94	=94
16BLL	.	4D_	.	16g'LL)	.	16gg'LL)	.	IV6
16d	.	.	.	(32gL	.	(32ggL	.	.
.	.	.	.	32aJJJ	.	32aaJJJ	.	.
16G	.	.	.	16b'LL)	.	16bb'LL)	.	.
16dJJ	.	.	.	(32bL	.	(32bbL	.	.
.	.	.	.	32cc#JJJ	.	32ccc#JJJ	.	.
16F#LL	.	16DLL]	.	16dd'LL)	.	16ddd'LL)	.	I
16D	.	(32AL	.	(32aL	.	16r	.	.
.	.	32BJJJ	.	32bJJJ	.	.	.	.
16AA	.	16c#'LL)	.	16cc#'LL)	.	16r	.	.
16FF#JJ	.	(32dL	.	(32ddL	.	16aJJ	.	.
.	.	32eJJJ	.	32eeJJJ	.	.	.	.
=95	=95	=95	=95	=95	=95	=95	=95	=95
16DD'LL	.	8.f#L	.	8.ff#L	.	[2aaT	.	.
16F#'	.	.	.	.	.	.	.	.
16AA'	sf	.	.	.	.	.	.	.
16F#'JJ	.	32gLL	.	32ggLL	.	.	.	.
.	.	32f#JJJ	.	32ff#JJJ	.	.	.	.
16DD'LL	.	16e'LL)	.	16ee'LL)	.	.	.	.
16F#'	.	(32f#L	.	(32ff#L	.	.	.	.
.	.	32eJJJ	.	32eeJJJ	.	.	.	.
16AA'	sf	16d'LL)	.	16dd'LL)	.	.	.	.
16F#'JJ	.	(32eL	.	(32eeL	.	.	.	.
.	.	32dJJJ	.	32ddJJJ	.	.	.	.
=96	=96	=96	=96	=96	=96	=96	=96	=96
16EE'LL	.	16c#'LL)	.	16cc#'LL)	.	2aa]	.	V65
16G'	.	(32dL	.	(32ddL	.	.	.	.
.	.	32c#JJJ	.	32cc#JJJ	.	.	.	.
16DD'	.	16A'LL)	.	16b'LL)	.	.	.	.
16G'JJ	.	(32c#L	.	(32cc#L	.	.	.	.
.	.	32BJJJ	.	32bJJJ	.	.	.	.
16CC#LL	.	4A)	.	4a)	.	.	.	.
(32GL	.	.	.	.	.	.	.	.
32F#	.	.	.	.	.	.	.	.
32E	.	.	.	.	.	.	.	.
32D	.	.	.	.	.	.	.	.
32C#	.	.	.	.	.	.	.	.
32BBJJJ)	.	.	.	.	.	.	.	.
.	.	.	.	.	.	(16qqgg#X/LL	.	.
.	.	.	.	.	.	16qqaa/JJ	.	.
=97	=97	=97	=97	=97	=97	=97	=97	=97
16C#'LL	.	(8.AL	.	(8.aL	.	8..gggL)	.	.
16A'	.	.	.	.	.	.	.	.
16AA'	.	.	.	.	.	.	.	.
16A'JJ	.	32G#XLL	.	32g#XLL	.	.	.	.
.	.	.	.	.	.	8qqgg#X/	.	.
.	.	32AJJJ	.	32aJJJ	.	(32gggJkk	.	V7
16AALL	.	16B'LL)	.	16b'LL)	.	16fff#LL)	.	.
16A	.	(32AL	.	(32aL	.	32r	.	.
.	.	32BJJJ	.	32bJJJ	.	(32fff#JJk	.	.
16AA	.	16c#'LL)	.	16cc#'LL)	.	16eeeLL)	.	.
16GJJ	.	(32BL	.	(32bL	.	32r	.	.
.	.	32c#JJJ	.	32cc#JJJ	.	(32eeeJJk	.	.
=98	=98	=98	=98	=98	=98	=98	=98	=98
16DDLL	.	32gLLL	.	4ee	.	4eee	.	I(42)
.	.	32f#	.	.	.	.	.	.
16G	.	32e	.	.	.	.	.	.
.	.	32d	.	.	.	.	.	.
16AA	.	32c#	.	.	.	.	.	.
.	.	32B	.	.	.	.	.	.
16GJJ	.	32c#	.	.	.	.	.	.
.	.	32AJJ	.	.	.	.	.	.
(32DDLLL	.	8d)	.	8dd)	.	8ddd)	.	I\\
32F#	.	.	.	.	.	.	.	.
32E	.	.	.	.	.	.	.	.
32D	.	.	.	.	.	.	.	.
32C#	.	8AJ	.	8a	.	8r	.	.
32BB	.	.	.	.	.	.	.	.
32AA	.	.	.	.	.	.	.	.
32GGJJJ)	.	.	.	.	.	.	.	.
=99:|!	=99:|!	=99:|!	=99:|!	=99:|!	=99:|!	=99:|!	=99:|!	=99:|!
16BB-X'LL	p	(8d	.	(8dd	.	8ddd	.	.bVI.I
16Fn'	.	.	.	.	.	.	.	.
16D'	.	8r)	.	8r)	.	8r	.	.
16F'JJ	.	.	.	.	.	.	.	.
16BB-'LL	.	4r	.	4r	.	4r	.	.
16F'	.	.	.	.	.	.	.	.
16D'	.	.	.	.	.	.	.	.
16F'JJ	.	.	.	.	.	.	.	.
=100	=100	=100	=100	=100	=100	=100	=100	=100
16BB-X'LL	.	2r	.	2r	.	2r	.	.
16Fn'	.	.	.	.	.	.	.	.
16D'	.	.	.	.	.	.	.	.
16F'JJ	.	.	.	.	.	.	.	.
16BB-'LL	.	.	.	.	.	.	.	.
16F'	.	.	.	.	.	.	.	.
16D'	.	.	.	.	.	.	.	.
16F'JJ	.	.	.	.	.	.	.	.
=101	=101	=101	=101	=101	=101	=101	=101	=101
8BB-X	pp	16r	.	4dd	pp	16r	.	.
.	.	16Fn'LL	pp	.	.	16fnLL	pp	I
8r	.	16G'	.	.	.	16f	.	.
.	.	16A'JJ	.	.	.	16fJJ	.	.
4r	.	16B-X'LL	.	(8ccn'L	.	16fLL	.	.
.	.	16cn'J	.	.	.	16f	.	.
.	.	[8dJ	.	8b-X'J)	.	16f	.	.
.	.	.	.	.	.	16fJJ	.	I6
=102	=102	=102	=102	=102	=102	=102	=102	=102
!LO:TX:a:t=pizz.	!	!	!	!	!	!	!	!
8FFn	.	16d]	.	(8a'L	.	16fnLL	.	V7
.	.	16e-X'LL	.	.	.	16ffn	.	.
8r	.	16cn'	.	8g'J)	.	16ff	.	.
.	.	16B-X'JJ	.	.	.	16ffJJ	.	.
4r	.	16A'LL	.	4fn	.	16ffLL	.	.
.	.	16G'J	.	.	.	16ccn	.	.
.	.	(8FnJ	.	.	.	16ff	.	.
.	.	.	.	.	.	16ee-XJJ	.	.
=103	=103	=103	=103	=103	=103	=103	=103	=103
8BB-X	.	16F#)	.	4dd	.	16ddLL	.	I
.	.	16Fn'LL	.	.	.	16fn	.	.
8r	.	16G'	.	.	.	16f	.	.
.	.	16A'JJ	.	.	.	16fJJ	.	.
4r	.	16B-X'LL	.	(8dd'L	.	16fLL	.	.
.	.	16cn'	.	.	.	16f	.	.
.	.	16d'	.	8b-X'J)	.	16f	.	I6
.	.	16e'JJ	.	.	.	16fJJ	.	.
=104	=104	=104	=104	=104	=104	=104	=104	=104
!LO:TX:b:t=cresc.	!	!LO:TX:b:t=cresc.	!	!LO:TX:b:t=cresc.	!	!LO:TX:b:t=cresc.	!	!
8FFn	.	8fnL	.	(4a	.	16cn	.	V
.	.	.	.	.	.	16ccn'LL	.	.
8r	.	8fJ	.	.	.	16dd'	.	.
.	.	.	.	.	.	16ee'JJ	.	.
4r	.	[4f	.	4a-X)	.	16ffn'LL	.	v
.	.	.	.	.	.	16ee-X'	.	.
.	.	.	.	.	.	16dd'	.	.
.	.	.	.	.	.	16cc'JJ	.	.
=105	=105	=105	=105	=105	=105	=105	=105	=105
8GG	p	16fLL]	p	[4g	p	16bn'LL	p	V7/ii
.	.	16f#X'	.	.	.	16b'	.	.
8r	.	16e-X'	.	.	.	16ccn'	.	.
.	.	16B'JJ	.	.	.	16dd'JJ	.	.
8CCn	.	[4cn	.	16gLL]	.	[4ee-X	.	ii
.	.	.	.	16a'	.	.	.	.
8r	.	.	.	16b'	.	.	.	.
.	.	.	.	16ccn'JJ	.	.	.	.
=106	=106	=106	=106	=106	=106	=106	=106	=106
8Fn	.	16cLL]	.	[4fn	.	16ee-LL]	.	V7
.	.	16e-X'	.	.	.	16a'	.	.
8r	.	16d'	.	.	.	16b-X'	.	.
.	.	16A'JJ	.	.	.	16ccn'JJ	.	.
8BB-X	.	([4B-X	.	16fLL]	.	4dd	.	I
.	.	.	.	16g'	.	.	.	.
8r	.	.	.	16a'	.	.	.	.
.	.	.	.	16b-X'JJ	.	.	.	.
=107	=107	=107	=107	=107	=107	=107	=107	=107
!LO:TX:b:t=cresc.	!	!	!	!	!	!	!	!
!LO:TX:a:t=arco	!	!LO:TX:b:t=cresc.	!	!LO:TX:b:t=cresc.	!	!LO:TX:a:t=cresc.	!	!
4.BB-X	.	8B-L]	.	16dLL	.	(8b-XL	.	I
.	.	.	.	16dd	.	.	.	.
.	.	8D	.	16dd	.	8aJ)	.	.
.	.	.	.	16ddJJ	.	.	.	.
.	.	8d)	.	16ddTLL	.	4g#Xt	.	I.Ger6
.	.	.	.	16dd	.	.	.	.
8BB-	.	8dJ	.	16ee	.	.	.	.
.	.	.	.	16ddJJ	.	.	.	.
=108	=108	=108	=108	=108	=108	=108	=108	=108
(8AA	.	8eL	.	16cc#LL	.	8a	.	V\\
.	.	.	.	(16A	.	.	.	.
4A	.	16r	.	16c#	.	8r	.	.
.	.	(16AJk	.	16AJJ	.	.	.	.
.	.	16BLL	.	16dLL	.	4r	.	.
.	.	16A	.	16A	.	.	.	.
8G)	.	16c#	.	16e	.	.	.	.
.	.	16AJJ)	.	16AJJ)	.	.	.	.
=109	=109	=109	=109	=109	=109	=109	=109	=109
4F#	pp	16dLL	pp	16f#LL	pp	16r	.	I6
.	.	16d	.	16A 16f#	.	16a'LL	pp	.
.	.	16d	.	16A 16f#	.	16b'	.	.
.	.	16dJJ	.	16AJJ 16f#	.	16cc#'JJ	.	.
(8E'L	.	16dLL	.	16ALL 16f#	.	16dd'LL	.	.
.	.	16d	.	16A 16f#	.	16ee'J	.	.
8D'J)	.	16d	.	16A 16f#	.	(8ff#J	.	I
.	.	16dJJ	.	16AJJ 16f#	.	.	.	.
=110	=110	=110	=110	=110	=110	=110	=110	=110
(8C#'L	.	16eLL	.	16ALL 16g	.	16ff#)	.	V65
.	.	16e	.	16A 16g	.	16gg'LL	.	.
8BB'J)	.	16e	.	16A 16g	.	16ee'	.	.
.	.	16eJJ	.	16AJJ 16g	.	16dd'JJ	.	.
4AA	.	16eLL	.	16ALL 16g	.	16cc#'LL	.	V7
.	.	16e	.	16A 16g	.	16b'J	.	.
.	.	16e	.	16A 16g	.	[8aJ	.	.
.	.	16eJJ	.	16AJJ 16g	.	.	.	.
=111	=111	=111	=111	=111	=111	=111	=111	=111
4F#	.	16dLL	.	16ALL 16f#	.	16aLL]	.	I6
.	.	16d	.	16A 16f#	.	16a'	.	.
.	.	16d	.	16A 16f#	.	16b'	.	.
.	.	16dJJ	.	16AJJ 16f#	.	16cc#'JJ	.	.
(8E'L	.	16dLL	.	16ALL 16f#	.	16dd'LL	.	.
.	.	16d	.	16A 16f#	.	16ee'	.	.
8D'J)	.	16d	.	16A 16f#	.	16ff#'	.	I
.	.	16dJJ	.	16AJJ 16f#	.	16gg#X'JJ	.	.
=112	=112	=112	=112	=112	=112	=112	=112	=112
(8C#'L	.	16c#LL	.	16ALL 16e	.	8aaL	.	V6
.	.	16c#	.	16A 16e	.	.	.	.
8BB'J)	.	16c#	.	16A 16e	.	8aaJ	.	.
.	.	16c#JJ	.	16AJJ 16e	.	.	.	.
[4AA	.	16c#LL	.	16ALL 16e	.	4aa	.	V
.	.	16c#	.	16A 16e	.	.	.	.
.	.	16c#	.	16A 16e	.	.	.	.
.	.	16c#JJ	.	16AJJ 16e	.	.	.	.
=113	=113	=113	=113	=113	=113	=113	=113	=113
16AALL]	.	16ALL	.	16ALL	.	4fff#	.	I64
16AA'	.	16f#	.	16dd	.	.	.	.
16BB'	.	16f#	.	16dd	.	.	.	.
16C#'JJ	.	16f#JJ	.	16ddJJ	.	.	.	.
16D'LL	.	16ALL	.	16ALL	.	(8eee'L	.	I
16E'J	.	16f#	.	16dd	.	.	.	.
(8F#J	.	16f#	.	16dd	.	8ddd'J)	.	I6
.	.	16f#JJ	.	16ddJJ	.	.	.	.
=114	=114	=114	=114	=114	=114	=114	=114	=114
16F#)	.	16ALL	.	16ALL	.	(8ccc#'L	.	V7
16G'LL	.	16e	.	16cc#	.	.	.	.
16E'	.	16A	.	16A	.	8bb'J)	.	.
16D'JJ	.	16gJJ	.	16eeJJ	.	.	.	.
16C#'LL	.	16ALL	.	16ALL	.	4aa	.	.
16BB'J	.	16g	.	16ee	.	.	.	.
(8AAJ	.	16A	.	16A	.	.	.	.
.	.	16gJJ	.	16eeJJ	.	.	.	.
=115	=115	=115	=115	=115	=115	=115	=115	=115
16AA)	.	16ALL	.	16ALL	.	4fff#	.	I64
16AA'LL	.	16f#	.	16dd	.	.	.	.
16BB'	.	16f#	.	16dd	.	.	.	.
16C#'JJ	.	16f#JJ	.	16ddJJ	.	.	.	.
16D'LL	.	16ALL	.	16ALL	.	(8eee'L	.	I
16E'	.	16f#	.	16dd	.	.	.	.
16F#'	.	16f#	.	16dd	.	8ddd'J)	.	I6
16G#X'JJ	.	16f#JJ	.	16ddJJ	.	.	.	.
=116	=116	=116	=116	=116	=116	=116	=116	=116
!LO:TX:b:t=cresc.	!	!LO:TX:b:t=cresc.	!	!LO:TX:b:t=cresc.	!	!LO:TX:b:t=cresc.	!	!
8AL	.	16ALL	.	16ALL	.	(8ccc#'L	.	V
.	.	16e	.	16cc#	.	.	.	.
8AJ	.	16e	.	16cc#	.	8bb'J)	.	.
.	.	16eJJ	.	16cc#JJ	.	.	.	.
[4A	.	16eLL	.	16ccnLL	.	4aa	.	v
.	.	16e	.	16cc	.	.	.	.
.	.	16e	.	16cc	.	.	.	.
.	.	16eJJ	.	16ccJJ	.	.	.	.
=117	=117	=117	=117	=117	=117	=117	=117	=117
16ALL]	p	16d#X'LL	p	16b'LL	p	[4bb	p	V65/ii
16A'	.	16d#'	.	16ff#'	.	.	.	.
16G'	.	16e'	.	16gg'	.	.	.	.
16D#X'JJ	.	16f#'JJ	.	16aa'JJ	.	.	.	.
[4E	.	[4e	.	[4gg	.	16bbLL]	.	ii
.	.	.	.	.	.	16ccc#'	.	.
.	.	.	.	.	.	16ddd#X'	.	.
.	.	.	.	.	.	16eee'JJ	.	.
=118	=118	=118	=118	=118	=118	=118	=118	=118
16ELL]	.	16eLL]	.	16ggLL]	.	[4aa	.	V65
16G'	.	16c#'	.	16ee'	.	.	.	.
16F#'	.	16d'	.	16ff#'	.	.	.	.
16C#'JJ	.	16e'JJ	.	16gg'JJ	.	.	.	.
4D	.	4d	.	4ff#	.	16aaLL]	.	I
.	.	.	.	.	.	16bb'	.	.
.	.	.	.	.	.	16ccc#'	.	.
.	.	.	.	.	.	16ddd'JJ	.	.
=119	=119	=119	=119	=119	=119	=119	=119	=119
2GG	.	4B	.	16r	.	[2dd [2ddd	.	IV
.	.	.	.	16d'LL	.	.	.	.
.	.	.	.	16e'	.	.	.	.
.	.	.	.	16f#'JJ	.	.	.	.
.	.	(8A'L	.	16g'LL	.	.	.	.
.	.	.	.	16a'J	.	.	.	.
.	.	8G'J)	.	(8bJ	.	.	.	.
=120	=120	=120	=120	=120	=120	=120	=120	=120
2DD	.	(8F#'L	.	16b)	.	2dd_ 2ddd_	.	V7/IV
.	.	.	.	16ccn'LL	.	.	.	.
.	.	8E'J)	.	16a'	.	.	.	.
.	.	.	.	16g'JJ	.	.	.	.
.	.	4D	.	16f#'LL	.	.	.	.
.	.	.	.	16e'J	.	.	.	.
.	.	.	.	(8dJ	.	.	.	.
=121	=121	=121	=121	=121	=121	=121	=121	=121
2GG	.	4B	.	16d)	.	2dd_ 2ddd_	.	IV
.	.	.	.	16d'LL	.	.	.	.
.	.	.	.	16e'	.	.	.	.
.	.	.	.	16f#'JJ	.	.	.	.
.	.	(8A'L	.	16g'LL	.	.	.	.
.	.	.	.	16a'	.	.	.	.
.	.	8G'J)	.	16b'	.	.	.	.
.	.	.	.	16cc#'JJ	.	.	.	.
=122	=122	=122	=122	=122	=122	=122	=122	=122
!LO:TX:b:t=cresc.	!	!LO:TX:b:t=cresc.	!	!LO:TX:b:t=cresc.	!	!LO:TX:b:t=cresc.	!	!
(8DDL	.	(8F#L	.	8ddL	.	(16ddLL] 16ddd]	.	I
.	.	.	.	.	.	16ccc#	.	.
8EEJ	.	8EJ	.	8ddJ	.	16ddd	.	.
.	.	.	.	.	.	16eeeJJ	.	.
4FFn)	.	4D)	.	[4dd	.	16dddLL	.	i6
.	.	.	.	.	.	16cccn	.	.
.	.	.	.	.	.	16bb	.	.
.	.	.	.	.	.	16aaJJ)	.	.
=123	=123	=123	=123	=123	=123	=123	=123	=123
8EE	p	[4E	p	16ddLL]	p	16gg#X'LL	p	V7/V
.	.	.	.	16dd'	.	16gg#'	.	.
8r	.	.	.	16ccn'	.	16aa'	.	.
.	.	.	.	16g#X'JJ	.	16bb'JJ	.	.
8AA	.	16ELL]	.	[4a	.	[4cccn	.	v
.	.	16F#'	.	.	.	.	.	.
8r	.	16G#X'	.	.	.	.	.	.
.	.	16A'JJ	.	.	.	.	.	.
=124	=124	=124	=124	=124	=124	=124	=124	=124
8DD	.	[4D	.	16aLL]	.	16cccLL]	.	V7/IV
.	.	.	.	16ccn'	.	16ff#'	.	.
8r	.	.	.	16b'	.	16gg'	.	.
.	.	.	.	16f#'JJ	.	16aa'JJ	.	.
8GG	.	16DLL]	.	4g	.	4bb	.	IV
.	.	16E'	.	.	.	.	.	.
8r	.	16F#'	.	.	.	.	.	.
.	.	16G'JJ	.	.	.	.	.	.
=125	=125	=125	=125	=125	=125	=125	=125	=125
[4BB	.	16r	.	16r	.	16r	.	V7/ii
.	.	16d#X'LL	.	16f#'LL	.	16aa'LL	.	.
.	.	16e'	.	16d#X'	.	16gg'	.	.
.	.	16f#'JJ	.	16A'JJ	.	16dd#X'JJ	.	.
16BBLL]	.	[4e	.	[4g	.	[4ee	.	ii64
16C#'	.	.	.	.	.	.	.	.
16D#X'	.	.	.	.	.	.	.	.
16E'JJ	.	.	.	.	.	.	.	.
=126	=126	=126	=126	=126	=126	=126	=126	=126
[4AA	.	16eLL]	.	16gLL]	.	16eeLL]	.	V7
.	.	16c#'	.	16e'	.	16gg'	.	.
.	.	16d'	.	16f#'	.	16ff#'	.	.
.	.	16e'JJ	.	16g'JJ	.	16cc#'JJ	.	.
16AALL]	.	4d	.	[4f#	.	8dd	.	I64
16BB'	.	.	.	.	.	.	.	.
16C#'	.	.	.	.	.	8r	.	.
16D'JJ	.	.	.	.	.	.	.	.
=127	=127	=127	=127	=127	=127	=127	=127	=127
!LO:TX:b:t=cresc.	!	!LO:TX:b:t=cresc.	!	!LO:TX:b:t=cresc.	!	!LO:TX:b:t=cresc.	!	!
8AAL	.	16d#XLL	.	16f#LL]	.	[4bb	.	V9
.	.	16a'	.	16dd#X'	.	.	.	.
8.A	.	16g'	.	16ee'	.	.	.	.
.	.	16d#'JJ	.	16ff#'JJ	.	.	.	.
.	.	[4e	.	[4gg	.	16bbLL]	.	ii
16AL	.	.	.	.	.	16ccc#'	.	.
16A	.	.	.	.	.	16ddd#X'	.	.
16AJJ	.	.	.	.	.	16eee'JJ	.	.
=128	=128	=128	=128	=128	=128	=128	=128	=128
16ryy	.	16eLL]	.	16ggLL]	.	[4aa	.	V7
16AAKL	.	16g'	.	16cc#'	.	.	.	.
8.AJ	.	16f#'	.	16dd'	.	.	.	.
.	.	16c#'JJ	.	16ee'JJ	.	.	.	.
.	.	[4d	.	[4ff#	.	16aaLL]	.	I64
16ALL	.	.	.	.	.	16bb'	.	.
16A	.	.	.	.	.	16ccc#'	.	.
16AJJ	.	.	.	.	.	16ddd'JJ	.	.
=129	=129	=129	=129	=129	=129	=129	=129	=129
16AAKL	.	16dLL]	.	16ff#LL]	.	16gg'LL	.	V7
8.AJ	sf	16c#'	.	16ee'	.	16aa'	.	.
.	.	16B'	sf	16dd'	sf	16bb'	sf	.
.	.	16A'JJ	.	16cc#'JJ	.	16ccc#'JJ	.	.
16AAKL	sf	16c#'LL	.	16ee'LL	.	16ff#'LL	.	.
8.AJ	.	16B'	.	16dd'	.	16gg'	.	.
.	.	16A'	sf	16cc#'	sf	16aa'	sf	.
.	.	16G'JJ	.	16b'JJ	.	16bb'JJ	.	.
=130	=130	=130	=130	=130	=130	=130	=130	=130
16AAKL	sf	16B'LL	.	16dd'LL	.	16ee'LL	.	.
[8.AJ	.	16A'	.	16cc#'	.	16ff#'	.	.
!	!	!	!LO:DY:a	!	!	!	!	!
.	.	16G'	sf sf	16b'	.	16gg'	sf	.
.	.	16F#'JJ	.	16a'JJ	.	16aa'JJ	.	.
16ALL]	.	16A'LL	.	16cc#'LL	.	16dd'LL	.	.
16AA	.	16G'	.	16b'	.	16ee'	.	.
16A	.	16F#'	sf	16a'	sf	16ff#'	sf	.
16AAJJ	.	16E'JJ	.	16g'JJ	.	16gg'JJ	.	.
=131	=131	=131	=131	=131	=131	=131	=131	=131
4AA	f	4E	f	4c#	f	4gg	f	.
4BB-X	f	4D	f	4d	f	4ffn	f	.bVI
=132	=132	=132	=132	=132	=132	=132	=132	=132
4GG#X	f	4B	f	4d	f	4ee	f	V65/V
4AA;	f > ]]	4G;	f > ]]	4c#;	f > ]]	8.e;L	f >	V7
!	!	!	!	!	!	!LO:TX:a:B:t=Poco Adagio	!	!
.	.	.	.	.	.	16aJk	]]	.
=133	=133	=133	=133	=133	=133	=133	=133	=133
*MM50	*	*MM50	*	*MM50	*	*MM50	*	*
!	!	!	!	!	!	!LO:TX:a:t=[quarter]=50	!	!
2r	.	2r	.	2r	.	4ff#	pp	I\\
.	.	.	.	.	.	(8ee'L	.	.
.	.	.	.	.	.	8dd'J)	.	.
=134	=134	=134	=134	=134	=134	=134	=134	=134
2r	.	2r	.	2r	.	(8cc#'L	.	.
.	.	.	.	.	.	8b'J)	.	.
.	.	.	.	.	.	4a	.	.
=135	=135	=135	=135	=135	=135	=135	=135	=135
2r	.	2r	.	4a	pp	8r	.	V
.	.	.	.	.	.	16cc#LL	.	.
.	.	.	.	.	.	32r	.	.
.	.	.	.	.	.	(32aJJk	.	.
.	.	.	.	(8g#X'L	.	16bLL)	.	V6/V
.	.	.	.	.	.	32r	.	.
.	.	.	.	.	.	(32aJJk	.	.
.	.	.	.	8gn'J)	.	16cc#LL)	.	V2
.	.	.	.	.	.	32r	.	.
.	.	.	.	.	.	(32aJJk	.	.
=136	=136	=136	=136	=136	=136	=136	=136	=136
2r	.	2r	.	(8f#'L	.	16ddLL)	.	I6
.	.	.	.	.	.	32r	.	.
.	.	.	.	.	.	(32aJJk	.	.
.	.	.	.	8e'J)	.	16eeLL)	.	V64
.	.	.	.	.	.	32r	.	.
.	.	.	.	.	.	(32aJJk	.	.
.	.	.	.	(16dLL	.	8ff#)	.	I
.	.	.	.	16e	.	.	.	.
.	.	.	.	16f#	.	8r	.	.
.	.	.	.	16gJJ)	.	.	.	.
=137	=137	=137	=137	=137	=137	=137	=137	=137
(4F#	pp	(4a	pp	[2a	pp	2r	.	I
8EL	.	8gL	.	.	.	.	.	.
8DJ	.	8f#J	.	.	.	.	.	.
=138	=138	=138	=138	=138	=138	=138	=138	=138
8C#L	.	8eL	.	(16aLL]	.	([4ggg	pp	V65
.	.	.	.	16b	.	.	.	.
8BBJ	.	8dJ	.	16cc#	.	.	.	.
.	.	.	.	16ddJJ	.	.	.	.
!LO:TX:b:t=cresc.	!	!LO:TX:b:t=cresc.	!	!LO:TX:b:t=cresc.	!	!LO:TX:b:t=cresc.	!	!
[4AA)	.	[4c#	.	16eeLL	.	16gggLL]	.	V7
.	.	.	.	16ff#J	.	16fff#	.	.
.	.	.	.	(8ggJ)	.	16eee	.	.
.	.	.	.	.	.	16dddJJ	.	.
=139	=139	=139	=139	=139	=139	=139	=139	=139
2AA]	.	4c#])	.	4ff#)	.	16ccc#LL	<	V7(6)
.	.	.	.	.	.	16bb	.	.
.	.	.	.	.	.	16aa	.	.
.	.	.	.	.	.	16ggJJ	.	.
.	.	[4E	<	[4e	<	16ff#LL	.	V
.	.	.	.	.	.	16ee	.	.
.	.	.	.	.	.	16dd	.	.
.	.	.	.	.	.	16cc#JJ	.	.
=140	=140	=140	=140	=140	=140	=140	=140	=140
8AAL	<	8EL]	.	8eL]	.	16bLL	.	V7
.	.	.	.	.	.	16a	.	.
(8AA'J	.	(8G'J	.	(8e'J	.	16g#X	.	.
.	.	.	.	.	.	16aJJ	.	.
8AA'L	[ >	8G'L	[ >	8e'L	[ >	16b-XLL	[ >	.
.	.	.	.	.	.	16bn	.	.
8AA'J)	]]	8G'J)	]]	8e'J)	]]	16ccn	.	.
.	.	.	.	.	.	16cc#XJJ)	]]	.
=141	=141	=141	=141	=141	=141	=141	=141	=141
8DL	.	8F#L	.	8f#L	.	8ddL	.	I\\
16.r	.	16.r	.	16.r	.	16.r	.	.
32DJkk	.	32F#Jkk	.	32dJkk	.	32aJkk	.	.
8DL	.	8F#L	.	8dL	.	8aL	.	.
16.r	.	16.r	.	16.r	.	16.r	.	.
32DDJkk	pp	32AJkk	pp	32dJkk	pp	32f#Jkk	pp	.
=142	=142	=142	=142	=142	=142	=142	=142	=142
2DD;	.	2A;	.	2d;	.	2f#;	.	.
==	==	==	==	==	==	==	==	==
*-	*-	*-	*-	*-	*-	*-	*-	*-
!!!system-decoration: s1,s2,s3,s4
